X:1
T:Psalm "Solemnitas"
T:A. Wierzbicki
T:Psalm "Solemnitas"
C:A. Wierzbicki
%%score 1 { ( 2 3 ) | ( 4 5 ) }
L:1/8
M:4/4
K:G
V:1 treble nm="Voice" snm="Voice"
V:2 treble nm="Organ" snm="Org."
V:3 treble 
V:4 bass 
V:5 bass 
V:1
"^Refren" D2 GF E2 D2 | AB cB A2 G2 |]"^I  II III""^Psalm" x4 [DG][DGB] [^CGB]2 [DFA]2 | %3
 x4 [Gce][FBd] [GBd]2 [GB]2 | x4 [EAc][EBd] [FBd]2 [DAc]2 | x4 [DGB][B,DG] [CFA]2 [B,DG]2 || %6
[K:F][M:4/4]"^Refren" C2 FE D2 C2 | GA BA G2 F2 |] %8
"^—""^I  II III""^Psalm" x4 [CF][CFA] [=B,FA]2 [CEG]2 | x4 [FBd][EAc] [FAc]2 [FA]2 | %10
 x4 [DGB][DAc] [EAc]2 [CGB]2 |"^—" x4 [CFA][A,CF] [B,EG]2 [A,CF]2 || %12
[K:Eb][M:4/4]"^Refren" B,2 ED C2 B,2 | FG AG F2 E2 |] %14
"^—""^I  II III""^Psalm" x4 [B,E][B,EG] [=A,EG]2 [B,DF]2 | x4 [EAc][DGB] [EGB]2 [EG]2 | %16
"^–" x4 [CFA][CGB] [DGB]2 [B,FA]2 |"^—" x4 [B,EG][G,B,E] [A,DF]2 [G,B,E]2 || %18
[K:D][M:4/4]"^Refren" A,2 DC B,2 A,2 | EF GF E2 D2 |] %20
"^—""^—""^I  II III""^Psalm" x4 [A,D][A,DF] [^G,DF]2 [A,CE]2 | x4 [DGB][CFA] [DFA]2 [DF]2 | %22
"^—" x4 [B,EG][B,FA] [CFA]2 [A,EG]2 |"^—""^—" x4 [A,DF][F,A,D] [G,CE]2 [F,A,D]2 || %24
V:2
 D2 GF E2 D2 | AB cB A2 G2 |]"^—" x4 GB B2 A2 | x4 ed d2 B2 | x4 cd d2 c2 | x4 BG A2 G2 || %6
[K:F][M:4/4] C2 FE D2 C2 | GA BA G2 F2 |]"^—""^—" x4 FA A2 G2 |"^—" x4 dc c2 A2 | x4 Bc c2 B2 | %11
 x4 AF G2 F2 ||[K:Eb][M:4/4] B,2 ED C2 B,2 | FG AG F2 E2 |]"^—""^—" x4 EG G2 F2 |"^—" x4 cB B2 G2 | %16
 x4 AB B2 A2 | x4 GE F2 E2 ||[K:D][M:4/4] A,2 DC B,2 A,2 | EF GF E2 D2 |]"^—""^—""^—" x4 DF F2 E2 | %21
"^—""^—" x4 BA A2 F2 | x4 GA A2 G2 | x4 FD E2 D2 || %24
V:3
 B,2 D2 C2 B,2 | E2 E^C =C2 B,2 |] (x4- B,2) ^C2 D2- | x4 GA G4- | x4 A2- A4 | (x4 G)D- D4 || %6
[K:F][M:4/4] A,2 C2 B,2 A,2 | D2 D=B, _B,2 A,2 |] (x4- A,2) =B,2 C2- | x4 FG F4- | x4 G2- G4 | %11
 (x4 F)C- C4 ||[K:Eb][M:4/4] G,2 B,2 A,2 G,2 | C2 C=A, _A,2 G,2 |] (x4- G,2) =A,2 B,2- | %15
 x4 EF E4- | x4 F2- F4 | (x4 E)B,- B,4 ||[K:D][M:4/4] F,2 A,2 G,2 F,2 | B,2 B,^G, =G,2 F,2 |] %20
 (x4- F,2) ^G,2 A,2- | x4 DE D4- | x4 E2- E4 | (x4 D)A,- A,4 || %24
V:4
 G,4- G,4 | A,^G, A,=G, F,2 D,2 |] x4 D,2 G,2 F,2 | x4- B,D B,2 D2 |"^—""^—" x4- E2 D4 | %5
"^—" x4- DB, C2 B,2 ||[K:F][M:4/4] F,4- F,4 | G,^F, G,=F, E,2 C,2 |] x4 C,2 F,2 E,2 | %9
 x4- A,C A,2 C2 |"^—" x4- D2 C4 |"^—" x4- CA, B,2 A,2 ||[K:Eb][M:4/4] E,4- E,4 | %13
 F,=E, F,_E, D,2 B,,2 |]"^—" x4 B,,2 E,2 D,2 | x4- G,B, G,2 B,2 |"^—" x4- C2 B,4 | %17
 x4- B,G, A,2 G,2 ||[K:D][M:4/4] D,4- D,4 | E,^D, E,=D, C,2 A,,2 |]"^—" x4 A,,2 D,2 C,2 | %21
 x4- F,A, F,2 A,2 | x4- B,2 A,4 | x4- A,F, G,2 F,2 || %24
V:5
 G,,2 B,,2 C,2 G,,2 | C,B,, A,,2 D,2 G,,2 |] x4- G,,2 A,,2 D,2 | x4 E,F, G,4 | x4 A,2 F,2 D,2 | %5
 x4 D,2 F,2 G,2 ||[K:F][M:4/4] F,,2 A,,2 B,,2 F,,2 | B,,A,, G,,2 C,2 =F,,2 |] x4- F,,2 G,,2 C,2 | %9
 x4 D,E, F,4 | x4 G,2 E,2 C,2 | x4 C,2 E,2 F,2 ||[K:Eb][M:4/4] E,,2 G,,2 A,,2 E,,2 | %13
 A,,G,, F,,2 B,,2 _E,,2 |] x4- E,,2 F,,2 B,,2 | x4 C,D, E,4 | x4 F,2 D,2 B,,2 | x4 B,,2 D,2 E,2 || %18
[K:D][M:4/4] D,,2 F,,2 G,,2 D,,2 | G,,F,, E,,2 A,,2 =D,,2 |] x4- D,,2 E,,2 A,,2 | x4 B,,C, D,4 | %22
 x4 E,2 C,2 A,,2 | x4 A,,2 C,2 D,2 || %24

